X:317
T: Da[i]nty Davy
N: O'Farrell's Pocket Companion v.4 (Sky ed. p.140)
N: "Scotch"
M: 4/4
R: reel
L: 1/8
Q: 240
K: Em
(3e/f/g/| dBB>A GF/E/ G2| Gd B/c/d/B/ GGBg| dBB>A GF/E/ Gf|
gedf e2e :|
P:2
z| gagb gbba/g/| fdad f/e/f/g/ ag/f/| gabg af g/f/e/d/|
e/f/g/a/ b/a/g/f/ e2e :|
P:3
g| d/e/d/c/ B/c/B/A/ G/A/B/G/ ED/E/| GG D/G/B/G/ D/G/B/G/ D/G/B/G/|
d/e/d/c/ B/c/B/A/ G/A/B/G/ E>e | g/b/e/g/ f/a/d/f/ e2e :|
P:4
f| g/d/B/d/ g/d/B/d/ g/d/B/d/ g/b/a/g/|
f/d/A/d/ f/d/A/d/ f/d/A/d/ f/a/g/f/|
g/f/g/d/ g/b/a/g/ f/e/f/d/ f/a/g/f/|
e/f/g/a/ b/a/g/f/ e2e :|
P:5
g| dBB>A GE G2| GdBd GGBd| eBB>A GF/G/ E>e|
g/b/e/g/ f/a/d/f/ e2e :|
